imgs/icon-3.svg

<svg width="75" height="70" xmlns="http://www.w3.org/2000/svg"><g fill="#81B3D2" fill-rule="nonzero"><path d="M70.854 46.71H5.051c-2.274 0-4.135 1.94-4.135 4.313v3.504c0 2.372 1.861 4.313 4.135 4.313h.93v1.053c0 5.536 4.341 10.065 9.648 10.065h44.646c5.306 0 9.648-4.529 9.648-10.065V58.84h.93c2.274 0 4.135-1.941 4.135-4.313v-3.504c0-2.373-1.86-4.313-4.134-4.313Zm-3.848 13.184c0 3.871-3.019 7.021-6.73 7.021H15.629c-3.711 0-6.731-3.15-6.731-7.021v-1.053h58.107v1.053h.001Zm5.065-5.367c0 .688-.558 1.271-1.218 1.271H5.051c-.66 0-1.217-.582-1.217-1.271v-3.504c0-.688.558-1.271 1.217-1.271h65.802c.66 0 1.218.582 1.218 1.271v3.504ZM16.634 38.406l5.323 4.059 5.326-4.059 5.328 4.059 5.328-4.059 5.328 4.059 5.329-4.059 5.327 4.059 5.33-4.06 5.336 4.059 6.194-4.712-1.72-2.459-4.474 3.403-5.336-4.057-5.33 4.056-5.327-4.057-5.329 4.057-5.328-4.057-5.328 4.057-5.328-4.057-5.325 4.057-5.323-4.057-5.327 4.057-4.467-3.401-1.721 2.457 6.188 4.714 5.326-4.059Zm-7.656-6.862h60.877c.041-.619.069-1.241.069-1.87 0-.394-.016-.783-.032-1.173C69.227 12.657 55.186 0 37.952 0 20.719 0 6.677 12.657 6.013 28.501c-.017.39-.032.78-.032 1.173 0 .629.028 1.251.07 1.87h2.927ZM37.952 3.043c15.591 0 28.35 11.316 29.021 25.458H8.931c.673-14.142 13.43-25.458 29.021-25.458Z"/><ellipse cx="37.952" cy="15.26" rx="1.945" ry="2.03"/><ellipse cx="30.172" cy="10.23" rx="1.946" ry="2.03"/><ellipse cx="45.732" cy="10.23" rx="1.946" ry="2.03"/></g></svg>

<?xml version="1.0" encoding="UTF-8"?>
<svg width="75px" height="70px" viewBox="0 0 75 70" version="1.1" xmlns="http://www.w3.org/2000/svg" xmlns:xlink="http://www.w3.org/1999/xlink">
    <title>icon-3</title>
    <g id="Pages" stroke="none" stroke-width="1" fill="none" fill-rule="evenodd">
        <g id="Index" transform="translate(-602.000000, -1097.000000)" fill="#81B3D2" fill-rule="nonzero">
            <g id="content" transform="translate(40.000000, 622.500000)">
                <g id="icon-3" transform="translate(562.000000, 474.500000)">
                    <path d="M70.854,46.71 L5.051,46.71 C2.777,46.71 0.916,48.65 0.916,51.023 L0.916,54.527 C0.916,56.899 2.777,58.84 5.051,58.84 L5.981,58.84 L5.981,59.893 C5.981,65.429 10.322,69.958 15.629,69.958 L60.275,69.958 C65.581,69.958 69.923,65.429 69.923,59.893 L69.923,58.84 L70.853,58.84 C73.127,58.84 74.988,56.899 74.988,54.527 L74.988,51.023 C74.988,48.65 73.128,46.71 70.854,46.71 L70.854,46.71 Z M67.006,59.894 C67.006,63.765 63.987,66.915 60.276,66.915 L15.629,66.915 C11.918,66.915 8.898,63.765 8.898,59.894 L8.898,58.841 L67.005,58.841 L67.005,59.894 L67.006,59.894 Z M72.071,54.527 C72.071,55.215 71.513,55.798 70.853,55.798 L5.051,55.798 C4.391,55.798 3.834,55.216 3.834,54.527 L3.834,51.023 C3.834,50.335 4.392,49.752 5.051,49.752 L70.853,49.752 C71.513,49.752 72.071,50.334 72.071,51.023 L72.071,54.527 L72.071,54.527 Z M16.634,38.406 L21.957,42.465 L27.283,38.406 L32.611,42.465 L37.939,38.406 L43.267,42.465 L48.596,38.406 L53.923,42.465 L59.253,38.405 L64.589,42.464 L70.783,37.752 L69.063,35.293 L64.589,38.696 L59.253,34.639 L53.923,38.695 L48.596,34.638 L43.267,38.695 L37.939,34.638 L32.611,38.695 L27.283,34.638 L21.958,38.695 L16.635,34.638 L11.308,38.695 L6.841,35.294 L5.12,37.751 L11.308,42.465 L16.634,38.406 Z M8.978,31.544 L69.855,31.544 C69.896,30.925 69.924,30.303 69.924,29.674 C69.924,29.28 69.908,28.891 69.892,28.501 C69.227,12.657 55.186,0 37.952,0 C20.719,0 6.677,12.657 6.013,28.501 C5.996,28.891 5.981,29.281 5.981,29.674 C5.981,30.303 6.009,30.925 6.051,31.544 L8.978,31.544 Z M37.952,3.043 C53.543,3.043 66.302,14.359 66.973,28.501 L8.931,28.501 C9.604,14.359 22.361,3.043 37.952,3.043 Z" id="Shape"></path>
                    <ellipse id="Oval" cx="37.952" cy="15.26" rx="1.945" ry="2.03"></ellipse>
                    <ellipse id="Oval" cx="30.172" cy="10.23" rx="1.946" ry="2.03"></ellipse>
                    <ellipse id="Oval" cx="45.732" cy="10.23" rx="1.946" ry="2.03"></ellipse>
                </g>
            </g>
        </g>
    </g>
</svg>
